icons/add-person.svg

<svg xmlns="http://www.w3.org/2000/svg" viewBox="0 0 24 24">
  <g fill-rule="evenodd" transform="translate(2 4)">
    <path d="M5 6V3H3v3H0v2h3v3h2V8h3V6H5zm8 4c-3.83 0-6.937 1.8-6.995 4.03L6 15.963h14v-1.93C19.937 11.798 16.83 10 13 10z"/>
    <circle cx="13" cy="4" r="4"/>
  </g>
</svg>

<?xml version="1.0" encoding="UTF-8" standalone="no"?>
<svg width="24px" height="24px" viewBox="0 0 24 24" version="1.1" xmlns="http://www.w3.org/2000/svg" xmlns:xlink="http://www.w3.org/1999/xlink">
    <!-- Generator: Sketch 40.1 (33804) - http://www.bohemiancoding.com/sketch -->
    <title>add-person</title>
    <desc>Created with Sketch.</desc>
    <defs></defs>
    <g id="Page-1" stroke="none" stroke-width="1" fill="none" fill-rule="evenodd">
        <g id="add-person" fill="#777777">
            <g id="Rectangle-652-+-Imported-Layers-+-Oval-204-+-Rectangle-906-Copy-9" transform="translate(2.000000, 4.000000)">
                <g id="Rectangle-652-+-Imported-Layers-+-Oval-204">
                    <path d="M5,6 L5,3 L3,3 L3,6 L0,6 L0,8 L3,8 L3,11 L5,11 L5,8 L8,8 L8,6 L5,6 Z" id="Rectangle-652"></path>
                    <path d="M13,10 C9.170125,10 6.063,11.799 6.00525,14.031 L6,15.962 L20,15.962 L20,14.031 C19.937,11.799 16.829875,10 13,10 Z" id="Imported-Layers"></path>
                    <circle id="Oval-204" cx="13" cy="4" r="4"></circle>
                </g>
            </g>
        </g>
    </g>
</svg>
